X:1
T:When I Look in His Face
T:When I Look in His Face
T:Charles Hutchinson Gabriel
T:Lizzie DeArmond, 1917
T:Public Domain Courtesy of the Cyber Hymnal™
T:Public Domain Courtesy of the Cyber Hymnal™
C:Charles Hutchinson Gabriel
Z:Public Domain
Z:Courtesy of the Cyber Hymnal™
%%score ( 1 2 ) ( 3 4 )
L:1/8
Q:1/4=96
M:6/8
K:G
V:1 treble 
V:2 treble 
V:3 bass 
V:4 bass 
V:1
 D/D/ | [DB][Ec][DB] AE[CF] | [B,G]3 [B,D]2 [B,D]/[B,D]/ | [B,G][EG][DG] GF[=CG] | %4
w: 1.~Tho’ the|road may be rough where He|leads me, Still His|foot- prints I plain- ly can|
w: 2.~So I|keep my eyes fixed up- on|Je- sus, While I’m|run- ning life’s wear- i- some|
w: 3.~Tho’ the|sha- dows a- round me may|ga- ther, Safe I|rest in my Lord’s “sec- ret|
 (z FE [CDA]2) D/D/ | [DB][Ec][DB] AE[CF] | [B,G]3 [DA]2 [DB]/[D^EB]/ | Ad[DF] AG[=CE] | %8
w: * * * trace, And|the tri- als * I meet|with seem no- thing,|When I look in my dear|
w: * * * race; I’ll|for- get the * hard path-|way I tra- veled,|When I look in my dear|
w: * * * place.” For|I know there’ll * be glo-|ri- ous sun- shine,|When I look in my dear|
 D3- [A,CD]2 ||"^Refrain" D/D/ | [EFc]>[EFc][EFc] ([EFc][DFB])[CDA] | %11
w: Sav- ior’s|* face.||
w: Sav- ior’s|* face.|When I look in * His|
w: Sav- ior’s|* face.||
 [B,DB]>[B,GB][EGB] [DGB]2 [^DA] | G>A[GB] AE[=CGB] | (z FE [CDA]2) D/D/ | %14
w: |||
w: face, His won- der- ful|face, In Heav- en, that beau-|* * * ti- ful|
w: |||
 [DGB]>[^CG^A][DGB] [=Fd][FB][FG] | [Ec] [CE]4 [EG]/[_EA]/ | [DB]D[Ec] [DB]!fermata![DB][CA] | %17
w: |||
w: place! All the hard- ships of|earth will seem no-|thing, When I look in my|
w: |||
 [B,G]3- [B,G]2 |] %18
w: |
w: dear *|
w: |
V:2
 x | x3 C2 x | x6 | x3 ^C2 x | ([CA]3- x C) x | x3 C2 x | x6 | [DF]2 ^C2 x2 | DA,B, x2 || x | x6 | %11
 x6 | B,2 (C/D/) ^C2 x | ([CA]3- x C) x | x6 | x6 | x6 | x5 |] %18
V:3
 z | G,,2 G, F,G,A, | (z E,D,) [G,,G,]2 z | E,,2 E, E,A,[A,,E,] | (F, A,G, [D,F,]2) [D,F,] | %5
 G,,2 G, F,G,A, | E,,B,,E, F,2 G,/[^G,,^G,]/ | [A,,A,]2 [A,,A,] E,A,G, | (F,2 G, [D,F,]2) || z | %10
 D,,A,,D, (D,,D,-)[D,F,] | G,,D,G, (G,,G,)F, | E,2 E, [A,,E,]2 [A,,A,] | (F,A,G, [D,F,]2) [D,F,] | %14
 G,,D,G, [G,,D,B,][G,D][G,B,] | [C,,C,] [C,G,]4 C/G,/ | %16
 [D,G,][B,,G,][C,G,] [D,G,]!fermata![D,G,]D, | [G,,D,]3- [G,,D,]2 |] %18
V:4
 x | x3 D,3 | G,,3- x3 | x3 A,,2 x | D,3- x3 | x3 D,3 | x6 | x3 A,,3 | D,3- x2 || x | x6 | x6 | %12
 x6 | D,3- x3 | x6 | x5 C, | x6 | x5 |] %18

